dist/img/ic-fb.svg

<svg width="10" height="18" viewBox="0 0 10 18" fill="none" xmlns="http://www.w3.org/2000/svg">
<path d="M6.95996 6.26676V4.56676C6.95996 3.8301 7.13996 3.43343 8.39996 3.43343H9.95996V0.600098H7.55996C4.55996 0.600098 3.35996 2.4701 3.35996 4.56676V6.26676H0.959961V9.1001H3.35996V17.6001H6.95996V9.1001H9.59996L9.95996 6.26676H6.95996Z" fill="#CCB69F"/>
</svg>

<svg width="10" height="18" viewBox="0 0 10 18" xmlns="http://www.w3.org/2000/svg"><path d="M6.96 6.267v-1.7c0-.737.18-1.134 1.44-1.134h1.56V.6h-2.4c-3 0-4.2 1.87-4.2 3.967v1.7H.96V9.1h2.4v8.5h3.6V9.1H9.6l.36-2.833h-3z"/></svg>
